X: 50
T: The Savoyards Dance
R: jig
M: 6/8
L: 1/8
Z: 2012 John Chambers <jc:trillian.mit.edu>
B: Saml. Ann & Peter Thompson "Twenty Four Country Dances for the Year 1791", London 1791, p.25 #2
K: D
% - - - - - - - - - - - - - - - - - - - - - - - - -
AAA |\
d2d e2f | e2d d2c | B2B c2A | d3 AAA |\
d2d e2f | d2d def | g2e d2c | d3 :|
|: ABc |\
d2d e2e | g2g e2e | f2e f2d | a3 fga |\
g2g e2e | f3  fga | g2g e2e | d3 :|
% - - - - - - - - Dance description - - - - - - - -
%%begintext align
%% Cast off two Cu: and up again .|.
%% cross over two Cu: up again and cast off :|.
%% hands four quite round at bottom .|:
%% Right and left at top :|:
%%endtext

%%sep 1 1 500
%%sep 1 1 500
